polaris-icons/icons/new-icons/BillingStatementRupeeMajor.svg

<svg width="20" height="20" viewBox="0 0 20 20" fill="none" xmlns="http://www.w3.org/2000/svg">
<path fill-rule="evenodd" clip-rule="evenodd" d="M4.9626 17.4004C4.38275 17.1779 4 16.6211 4 16V5C4 3.61929 5.11929 2.5 6.5 2.5H13.5C14.8807 2.5 16 3.61929 16 5V16C16 16.6211 15.6172 17.1779 15.0374 17.4004C14.4576 17.6229 13.8005 17.4651 13.3851 17.0035L12.25 15.7423L11.1149 17.0035C10.8305 17.3195 10.4252 17.5 10 17.5C9.57477 17.5 9.16952 17.3195 8.88506 17.0035L7.74999 15.7423L6.61493 17.0035C6.19945 17.4651 5.54245 17.6229 4.9626 17.4004ZM7.74999 14.9949L7.75085 14.9941ZM12.3515 14H12.1485C11.911 14.024 11.6806 14.1327 11.5067 14.3259L10 16L8.49329 14.3259C8.31939 14.1327 8.08898 14.024 7.85154 14H7.64845C7.41101 14.024 7.18061 14.1327 7.00671 14.3259L5.5 16V5C5.5 4.44772 5.94772 4 6.5 4H13.5C14.0523 4 14.5 4.44772 14.5 5V16L12.9933 14.3259C12.8194 14.1327 12.589 14.024 12.3515 14Z" fill="#4A4A4A"/>
<path d="M11.6431 12.1113C11.9958 12.3284 12.1058 12.7903 11.8887 13.1431C11.6717 13.4959 11.2097 13.6058 10.8569 13.3888L8.04278 11.657C7.27433 11.1841 7.60947 10 8.51177 10C9.05755 10 9.5 9.55757 9.5 9.01179V9H7.75C7.33579 9 7 8.66421 7 8.25C7 7.83579 7.33579 7.5 7.75 7.5H9.5V6.50002H7.75C7.33579 6.50002 7 6.16423 7 5.75002C7 5.3358 7.33579 5.00002 7.75 5.00002H12.25C12.6642 5.00002 13 5.3358 13 5.75002C13 6.16423 12.6642 6.50002 12.25 6.50002H11V7.5H12.25C12.6642 7.5 13 7.83579 13 8.25C13 8.66421 12.6642 9 12.25 9H11V9.01179C11 9.8591 10.5765 10.6075 9.92959 11.0568L11.6431 12.1113Z" fill="#4A4A4A"/>
</svg>

<svg viewBox="0 0 20 20" xmlns="http://www.w3.org/2000/svg"><path fill-rule="evenodd" d="M4.963 17.4a1.5 1.5 0 0 1-.963-1.4v-11a2.5 2.5 0 0 1 2.5-2.5h7a2.5 2.5 0 0 1 2.5 2.5v11a1.5 1.5 0 0 1-2.615 1.003l-1.135-1.26-1.135 1.26a1.5 1.5 0 0 1-2.23 0l-1.135-1.26-1.135 1.26a1.5 1.5 0 0 1-1.652.397Zm2.787-2.405Zm4.601-.995h-.203a.995.995 0 0 0-.641.326l-1.507 1.674-1.507-1.674a.995.995 0 0 0-.641-.326h-.204a.995.995 0 0 0-.641.326l-1.507 1.674v-11a1 1 0 0 1 1-1h7a1 1 0 0 1 1 1v11l-1.507-1.674a.995.995 0 0 0-.642-.326Z" fill="#5C5F62"/><path d="M11.643 12.111a.75.75 0 0 1-.786 1.278l-2.814-1.732c-.769-.473-.434-1.657.469-1.657a.988.988 0 0 0 .988-.988v-.012h-1.75a.75.75 0 0 1 0-1.5h1.75v-1h-1.75a.75.75 0 0 1 0-1.5h4.5a.75.75 0 0 1 0 1.5h-1.25v1h1.25a.75.75 0 0 1 0 1.5h-1.25v.012c0 .847-.424 1.595-1.07 2.045l1.713 1.054Z" fill="#5C5F62"/></svg>
